X:377
T: Blush of Aurora
N: O'Farrell's Pocket Companion v.4 (Sky ed. p.162-3)
H: Possibly by O Carolan?
M: 3/4
L: 1/8
Q: 180
R: waltz
K: D
A2| d2 fedc| d2 AGFE| D2F2A2| d4 f>d|
e2e2 f>d| e2A2 f>d| e>fg efd| e4 e2|
e2 cedc| d2 BdcB| cBA Bcd| e4f2|
e2 dcde| fga2^g2| a6| f6|
e2 dcBA| cde2 E2| A4A2| cde2 dc|
def2 ed| efg2 fe| f4 f>e| d2B2 f>e|
d2B2f2| gfedcB| AGF2f2| (3gfe d2c2|
B4c2| d2A2G2| F2A2d2| efgfed|
{d}c4a2|a4 f>d| e2A2c2| d4A2|
d2 AGFE| D4 de| f2d2A2| F4 fg|
abagfa| gagfeg| fagfed| cedcBA|
dcdfeg| fefagb| a2 gfed| a4A2|
d2d2=c2| B2g2B2| e2e2d2| c2A2a2|
a4 fd| e2A2c2| d6-|d6||
